X: 212
T: Train On The Island
B: canberra pickers and fiddlers
B: old time tunes update
B: tunes
M:2/4
L:1/8
Q: 1/4=100
K:A
V:1 
c|e>(f e)c|e>(f|e) e/f/|f/f/e/e/ f/f/a/a/|(A/e)(A e)A/B/|c/B/c/A/ B/A/A/B/|c/B/A/D/ E/D/D/E/|
D/D/E/E/ A/A/c/A/|(D/B)(D B)A/B/|cc/A/ B/A/A/B/|c/A/B/A/ E/D/D/E/|
D/D/E/E/ A/A/B/B/|(D/A)(D/ A3:|
% abcbook-tune_id 67a7d9ec361fb2ddb6cabe25
% abcbook-tune_composer_id 
% abcbook-link-0 https://www.youtube.com/watch?v=1Gz0fXYd0Rw
% abcbook-link-title-0 Nadine Landry and Stephen Sammy Lind  - Train on the Island
% abcbook-boost 0
% abcbook-difficulty 0
% abcbook-tags old time tunes
% abcbook-tablature 
% abcbook-transpose -2
% abcbook-tuning GDGD
% abcbook-lastupdated 1739253460601
% abcbook-src-url 
% abcbook-soundfonts 
% abcbook-repeats 1
%%MIDI transpose -2


